common/svg/build-profile-icon.svg

<svg fill="none" height="20" viewBox="0 0 20 20" width="20" xmlns="http://www.w3.org/2000/svg"><path clip-rule="evenodd" d="m0 3.33333c0-1.84095 1.49238-3.33333 3.33333-3.33333h13.33337c1.8409 0 3.3333 1.49238 3.3333 3.33333v13.33337c0 1.8409-1.4924 3.3333-3.3333 3.3333h-13.33337c-1.84095 0-3.33333-1.4924-3.33333-3.3333zm7.96296.74074c0-.4091-.33164-.74074-.74074-.74074s-.74074.33164-.74074.74074v6.05233c-.8631.3051-1.48148 1.1283-1.48148 2.0958 0 .9676.61838 1.7907 1.48148 2.0958v1.6079c0 .4091.33164.7408.74074.7408s.74074-.3317.74074-.7408v-1.6079c.86311-.3051 1.48148-1.1282 1.48148-2.0958 0-.9675-.61837-1.7907-1.48148-2.0958zm5.18524 12.59253c-.4091 0-.7408-.3316-.7408-.7407v-6.05239c-.8631-.30506-1.4815-1.1282-1.4815-2.09577s.6184-1.79071 1.4815-2.09578v-1.60793c0-.4091.3317-.74074.7408-.74074s.7407.33164.7407.74074v1.60793c.8631.30507 1.4815 1.12821 1.4815 2.09578s-.6184 1.79071-1.4815 2.09577v6.05239c0 .4091-.3316.7407-.7407.7407z" fill="#000" fill-rule="evenodd"/></svg>

<svg width="20" height="20" viewBox="0 0 20 20" fill="none" xmlns="http://www.w3.org/2000/svg">
<path fill-rule="evenodd" clip-rule="evenodd" d="M0 3.33333C0 1.49238 1.49238 0 3.33333 0H16.6667C18.5076 0 20 1.49238 20 3.33333V16.6667C20 18.5076 18.5076 20 16.6667 20H3.33333C1.49238 20 0 18.5076 0 16.6667V3.33333ZM7.96296 4.07407C7.96296 3.66497 7.63132 3.33333 7.22222 3.33333C6.81312 3.33333 6.48148 3.66497 6.48148 4.07407V10.1264C5.61838 10.4315 5 11.2547 5 12.2222C5 13.1898 5.61838 14.0129 6.48148 14.318V15.9259C6.48148 16.335 6.81312 16.6667 7.22222 16.6667C7.63132 16.6667 7.96296 16.335 7.96296 15.9259V14.318C8.82607 14.0129 9.44444 13.1898 9.44444 12.2222C9.44444 11.2547 8.82607 10.4315 7.96296 10.1264V4.07407ZM13.1482 16.6666C12.7391 16.6666 12.4074 16.335 12.4074 15.9259L12.4074 9.87351C11.5443 9.56845 10.9259 8.74531 10.9259 7.77774C10.9259 6.81017 11.5443 5.98703 12.4074 5.68196V4.07403C12.4074 3.66493 12.7391 3.33329 13.1482 3.33329C13.5573 3.33329 13.8889 3.66493 13.8889 4.07403V5.68196C14.752 5.98703 15.3704 6.81017 15.3704 7.77774C15.3704 8.74531 14.752 9.56845 13.8889 9.87351L13.8889 15.9259C13.8889 16.335 13.5573 16.6666 13.1482 16.6666Z" fill="black"/>
</svg>
